X: 120019
Q: "Highland Schottische."
M: C
L: 1/8
K: G
z |\
vG>vB (d<g) e2d2 | ve>vguf>ua g>ed>B |\
ua |\
vb>va (g<b) va>vf d2 | ve>uc G<g vd>vB G2 |
vb>va (g<b) a>f d2 | e>a (f<d) g2 g>a |\
b>a (g<b) a>f d2 | e>c G<g d>BA>B |\



